X:162
T:The Limerick lasses
R:Reel
O:Ireland
B:O'Neill's 1451
S:O'Neill's 1451
Z:Transcription:Bob Safranek, chords:Mike Long
M:C|
L:1/8
K:D
"D"dBAF D2EF|"G"GFGA "A"BEEc|"D"dBAF D2EF|[1 "G"GBAG "D"FDDc:|[2 "G"GBAG "D"FABc|]
"D"dcde f2ed|"A"cdef "G"gBBc|"D"dfga "G"b2ag|"A"faeg "D"fddc|\
"D"dcde fded|
"A"cdef "G"gfga|"G"bBbB b2ag|"A"faeg "D"fdd2|]\
"D"AdBd AdBd|"D"AdBd "A"ceec|
"D"AdBd AdBd|"A"efge "D"fddB|\
"D"AdBd AdBd|"D"Adfd "A"ceef|"G"gfec dcBA|"A"Bdce "D"fdd2|]
